X:4699
T:Egerlndischer Landla
B:E. Baumann, Alt-Egerlnder Tnze
S:Slg.Rittersberg
Z:abc transcription Simon Wascher
N:please mail errors to simon.wascher@chello.at
M:3/4
L:1/4
K:D
A/G/|F/A/d/A/e/A/|A/f/f/A/g/f/|fe/d/c/e/|d/c/d/B/A/G/|
F/A/d/A/e/A/|A/f/f/A/g/f/|fe/d/c/e/|dD:|
|:g/f/|fe/d/c/e/|d/c/d/A/g/f/|fe/d/c/e/|d/c/d/B/A/G/|
F/A/d/A/e/A/|A/f/f/A/g/f/|fe/d/c/e/|dD:|K:G
|:d/c/|B/d/g/d/a/d/|d/b/b/d/c'/b/|ba/g/f/a/|g/f/g/e/d/c/|
B/d/g/d/a/d/|d/b/b/d/c'/b/|ba/g/f/a/|gG:|
|:c'/b/|ba/g/f/a/|g/f/g/d/c'/b/|ba/g/f/a/|g/f/g/e/d/c/|
B/d/g/d/a/d/|d/b/b/d/c'/b/|ba/g/f/a/|gG:|
